icon-themes/breeze_svg/sw/res/sidebar/pageproppanel/column_L_copy_24x24.svg

<svg viewBox="0 0 24 24" xmlns="http://www.w3.org/2000/svg"><path d="m4 3v18 1h16v-1-18zm1 1h14v16 1h-14v-1z" fill="#4d4d4d"/></svg>

<svg xmlns="http://www.w3.org/2000/svg" viewBox="0 0 24 24">
 <path 
     style="fill:#4d4d4d" 
     d="M 4 3 L 4 21 L 4 22 L 20 22 L 20 21 L 20 3 L 4 3 z M 5 4 L 19 4 L 19 20 L 19 21 L 5 21 L 5 20 L 5 4 z "
     />
</svg>
